src/assets/Simulation-.svg

<svg width="24" height="24" viewBox="0 0 24 24" fill="none" xmlns="http://www.w3.org/2000/svg">
<g clip-path="url(#clip0_16447_4852)">
<path d="M19.573 0H13.0016H6.06454C4.39562 0.00307141 3.04127 1.35106 3.03027 3.01998V20.9799C3.04127 22.6488 4.39562 23.9968 6.06454 23.9999H19.5816C19.9527 24.0054 20.3107 23.8624 20.5759 23.6027C20.829 23.3427 20.9705 22.9941 20.9702 22.6313V1.39713C20.9686 0.626139 20.344 0.00157142 19.573 0ZM13.5788 1.14285H16.9359V6.50282L15.7445 4.60283C15.6962 4.5224 15.6289 4.45504 15.5485 4.40683C15.2778 4.24447 14.9268 4.33219 14.7645 4.60283L13.5788 6.49425V1.14285ZM4.18741 3.01998C4.19212 1.9852 5.02976 1.14756 6.06454 1.14285H12.4359V6.97139C12.4144 7.43531 12.7057 7.85638 13.1474 7.99995C13.6502 8.15138 14.1016 7.82567 14.3702 7.3971L15.2588 5.96854L16.1473 7.3971C16.413 7.81995 16.8645 8.14567 17.3816 7.99995C17.8212 7.85695 18.1119 7.43896 18.093 6.9771V1.15714H19.5816C19.7135 1.15871 19.82 1.26521 19.8216 1.39713V17.9681C19.7423 17.9547 19.662 17.948 19.5816 17.9485H6.06454C5.3829 17.9482 4.72126 18.1789 4.18741 18.6027V3.01998ZM19.8216 20.4142L6.64739 20.4284C6.33182 20.4284 6.07597 20.6843 6.07597 20.9999C6.07597 21.3154 6.33182 21.5713 6.64739 21.5713L19.8216 21.557V22.6199C19.8222 22.6838 19.7976 22.7454 19.753 22.7913C19.7072 22.8358 19.6455 22.8604 19.5816 22.8599H6.06454C5.02705 22.8599 4.18598 22.0188 4.18598 20.9813C4.18598 19.9438 5.02705 19.1027 6.06454 19.1027H19.5816C19.7135 19.1043 19.82 19.2108 19.8216 19.3427V20.4142Z" fill="#242426"/>
</g>
<defs>
<clipPath id="clip0_16447_4852">
<rect width="24" height="24" fill="white"/>
</clipPath>
</defs>
</svg>

<svg xmlns="http://www.w3.org/2000/svg" width="24" height="24" fill="none"><g clip-path="url(#a)"><path fill="#242426" d="M19.573 0H6.065A3.04 3.04 0 0 0 3.03 3.02v17.96A3.04 3.04 0 0 0 6.065 24h13.517c.37.005.729-.138.994-.397.253-.26.395-.609.394-.972V1.397A1.4 1.4 0 0 0 19.573 0m-5.994 1.143h3.357v5.36l-1.191-1.9a.572.572 0 0 0-.98 0l-1.186 1.891zM4.187 3.02a1.886 1.886 0 0 1 1.878-1.877h6.37V6.97c-.02.464.27.885.712 1.029.503.151.955-.174 1.223-.603l.889-1.428.888 1.428c.266.423.718.749 1.235.603.44-.143.73-.561.711-1.023v-5.82h1.489a.243.243 0 0 1 .24.24v16.571q-.12-.02-.24-.02H6.065c-.682 0-1.344.23-1.878.655zm15.635 17.394-13.175.014a.571.571 0 0 0 0 1.143l13.175-.014v1.063a.24.24 0 0 1-.069.171.24.24 0 0 1-.171.069H6.065a1.879 1.879 0 0 1 0-3.757h13.517a.243.243 0 0 1 .24.24z"/></g><defs><clipPath id="a"><path fill="#fff" d="M0 0h24v24H0z"/></clipPath></defs></svg>
